X:5788
T:Satterday Night
O:england
R:Jig
M:6/8
A:Westmorland
N:P12 2/2
K:C
C2D E2F|G2c B2G|ABA B2G|A2a g2e|\
C2D E2F|G2c B2G|ABA GAB|cGF EDC:|
|:c2e gec|B2c dBG|c2e gec|c2a g2e|\
c2e gec|B2c dBG|ABA GAB|cGF EDC:|


